X:396
T:Deveron Reel
C:Neil Grant
B:Ceol na Fidhle Vol.3
Z:Nigel Gatherer
M:2/4
L:1/8
K:D
DD F/E/D/F/ | AA B/A/F/A/ | dd f/e/d/e/ | fe eA |
DD F/E/D/F/ | AA B/A/F/A/ | df e/f/g/a/ | fd d>A :|
ff d/e/f/d/ | eA A>A | BB G/A/B/G/ | AD D>D | 
GG E/F/G/E/ | FA d>A | B/A/G/F/ E/F/G/A/ | FD D>A |
ff d/e/f/d/ | eA A>A | BB G/A/B/G/ | AD D>D | 
GG E/F/G/E/ | FA d>a |b/a/g/f/ e/f/g/a/ | fd d2 |]
<end>
<start>
